<?xml version='1.0' encoding='UTF-8'?>
<map version="1.10" tiledversion="1.11.0" orientation="orthogonal" renderorder="right-down" width="40" height="53" tilewidth="32" tileheight="24" infinite="0">
 <tileset firstgid="1" source="hall_tileset.tsx" />
 <layer id="1" name="floor" width="40" height="53">
  <data encoding="csv">
0,0,0,0,0,0,0,0,0,0,0,0,0,0,0,0,0,0,0,0,0,0,0,0,0,0,0,0,0,0,0,0,0,0,0,0,0,0,0,0,
0,0,0,0,0,0,0,0,0,0,0,0,0,0,0,0,0,0,0,0,0,0,0,0,0,0,0,0,0,0,0,0,0,0,0,0,0,0,0,0,
0,0,0,0,0,0,0,0,0,0,0,0,0,0,0,0,0,0,0,0,0,0,0,0,0,0,0,0,0,0,0,0,0,0,0,0,0,0,0,0,
0,0,0,0,0,0,0,0,0,0,0,0,0,0,0,0,0,0,0,0,0,0,0,0,0,0,0,0,0,0,0,0,0,0,0,0,0,0,0,0,
0,113,114,113,114,113,113,114,0,0,0,0,0,0,0,0,0,0,0,0,0,0,0,0,0,0,0,0,0,0,0,0,0,0,0,0,0,0,0,0,
0,114,114,113,113,113,113,114,0,0,0,0,0,0,0,0,0,0,0,0,0,0,0,0,0,0,0,0,0,0,0,0,0,0,0,0,0,0,0,0,
0,113,115,113,116,114,114,114,0,0,0,0,0,0,0,0,0,0,0,0,0,0,0,0,0,0,0,0,0,0,0,0,0,0,0,0,0,0,0,0,
0,113,113,113,113,113,115,114,0,0,0,0,0,0,0,0,0,0,0,0,0,0,0,0,0,0,0,0,0,0,0,0,0,0,0,0,0,0,0,0,
0,113,115,113,113,113,113,113,0,0,0,0,0,0,0,0,0,0,0,0,0,0,0,0,0,0,0,0,0,0,0,0,0,0,0,0,0,0,0,0,
0,115,113,113,113,113,113,114,0,0,0,0,0,0,0,0,0,0,0,0,0,0,0,0,0,0,0,0,0,0,0,0,0,0,0,0,0,0,0,0,
0,116,113,115,113,113,113,113,113,114,114,116,113,114,113,115,116,114,113,115,114,113,114,113,113,113,113,115,113,114,115,113,0,0,0,0,0,0,0,0,
0,113,114,113,115,113,114,114,115,113,114,114,114,114,114,114,113,113,113,113,116,113,113,113,113,113,113,113,113,114,113,114,0,0,0,0,0,0,0,0,
0,114,113,114,114,113,114,114,116,113,113,114,113,115,113,113,115,114,113,114,113,113,113,114,113,113,115,113,113,114,113,113,0,0,0,0,0,0,0,0,
0,113,113,114,113,113,114,113,113,115,114,114,115,116,113,114,116,114,113,113,113,114,113,113,113,113,113,114,113,114,113,113,0,0,0,0,0,0,0,0,
0,113,113,113,113,113,113,113,113,116,116,113,114,113,114,114,113,113,113,113,113,113,113,115,113,114,113,113,114,113,113,113,0,0,0,0,0,0,0,0,
0,114,113,113,113,113,114,113,113,113,113,113,113,113,116,113,113,113,113,113,114,114,113,113,113,113,114,113,114,115,114,113,0,0,0,0,0,0,0,0,
0,113,113,113,114,114,113,114,116,113,113,113,115,113,113,113,113,113,113,113,113,113,113,113,113,113,114,115,114,114,116,116,0,0,0,0,0,0,0,0,
0,113,113,115,114,115,113,114,113,115,113,113,116,113,114,113,114,113,113,113,116,113,113,113,114,113,115,115,114,113,113,113,0,0,0,0,0,0,0,0,
0,115,114,113,113,114,113,113,116,113,113,113,113,113,113,113,113,113,113,114,116,116,116,113,116,114,113,113,113,113,113,115,0,0,0,0,0,0,0,0,
0,119,117,119,117,117,117,117,114,114,113,113,113,113,113,113,113,113,114,114,113,113,116,114,113,113,113,114,114,113,113,116,0,0,0,0,0,0,0,0,
0,117,120,118,118,117,119,120,114,113,113,113,113,116,114,116,113,113,113,113,113,113,116,113,115,114,113,113,114,115,114,113,0,0,0,0,0,0,0,0,
0,118,119,117,118,117,117,119,116,114,115,113,113,113,113,113,113,114,113,114,114,113,116,115,113,115,115,113,113,113,113,113,0,0,0,0,0,0,0,0,
0,117,117,117,117,117,117,117,114,113,113,113,113,115,113,113,114,113,114,116,113,113,114,113,113,113,113,113,113,114,114,113,0,0,0,0,0,0,0,0,
0,117,117,117,117,117,117,117,115,113,114,115,113,114,113,114,116,113,113,114,116,114,114,113,113,113,114,113,113,114,113,113,0,0,0,0,0,0,0,0,
0,118,117,118,117,117,117,118,113,113,113,113,114,114,113,114,115,113,113,115,115,113,113,113,114,113,114,114,113,113,113,113,0,0,0,0,0,0,0,0,
0,117,120,119,117,117,117,117,113,113,114,114,114,113,113,115,114,113,113,113,113,114,113,113,113,113,113,113,114,114,115,115,0,0,0,0,0,0,0,0,
0,118,118,117,117,117,117,118,113,113,115,113,113,113,115,116,113,113,114,114,113,114,113,114,114,114,116,113,113,114,113,114,0,0,0,0,0,0,0,0,
0,119,120,117,118,117,117,120,113,113,114,113,114,113,113,113,113,113,114,114,113,113,113,113,113,113,113,116,113,113,113,113,0,0,0,0,0,0,0,0,
0,118,117,117,117,117,117,117,114,113,113,114,113,114,113,115,113,113,115,113,115,115,116,114,114,113,113,113,113,115,113,115,0,0,0,0,0,0,0,0,
0,117,117,117,117,118,117,119,115,116,113,113,113,113,113,113,115,115,115,113,113,113,113,113,115,114,115,113,113,113,113,114,0,0,0,0,0,0,0,0,
0,117,117,119,117,120,117,119,113,113,113,114,113,113,115,115,113,113,113,113,115,113,115,114,113,113,114,113,115,113,113,115,0,0,0,0,0,0,0,0,
0,117,117,119,117,117,119,117,119,117,119,117,117,117,117,119,117,117,117,117,117,117,119,117,117,118,117,117,118,117,117,117,117,117,118,118,117,118,117,0,
0,117,119,117,117,117,117,117,117,117,117,117,117,117,117,117,119,119,117,119,117,118,117,117,119,117,117,118,117,119,117,117,117,117,117,117,117,117,117,0,
0,117,117,119,118,117,117,118,117,117,117,117,117,117,117,117,117,119,117,119,118,120,118,120,118,117,117,117,118,117,117,119,117,117,117,118,118,118,117,0,
0,117,117,119,117,117,118,117,117,117,118,117,117,117,117,117,117,117,118,117,120,117,118,118,120,117,117,117,117,119,117,117,117,119,117,119,117,117,117,0,
0,117,117,119,118,117,117,119,117,117,117,117,117,118,120,117,117,117,117,117,117,117,117,117,120,117,117,117,117,117,118,117,117,117,117,117,117,118,117,0,
0,0,0,0,0,0,0,117,117,117,117,117,117,117,119,117,119,117,117,117,117,117,117,118,117,118,117,118,117,118,120,117,117,120,118,117,118,117,117,0,
0,0,0,0,0,0,0,120,117,117,117,117,117,117,119,120,117,119,118,117,118,118,117,119,117,117,118,117,120,117,117,118,117,119,117,117,117,118,118,0,
0,0,0,0,0,0,0,118,117,119,117,117,117,119,117,119,117,117,117,118,117,120,117,118,117,119,119,117,117,117,117,117,118,118,117,118,117,117,118,0,
0,0,0,0,0,0,0,116,113,113,114,116,115,113,113,113,115,119,117,117,117,117,117,117,117,118,120,120,117,113,114,113,113,113,115,116,113,115,114,0,
0,0,0,0,0,0,0,113,113,114,115,116,114,113,115,116,113,117,118,117,117,119,117,119,117,117,120,118,117,114,116,114,113,114,114,113,113,113,113,0,
0,0,0,0,0,0,0,114,113,113,113,115,113,113,113,113,114,118,117,117,120,118,117,118,117,118,117,117,117,113,113,115,113,113,115,114,115,113,114,0,
0,0,0,0,0,0,0,114,113,113,115,114,113,113,114,113,115,117,117,117,118,117,117,117,119,119,117,117,117,113,113,113,113,113,114,116,115,113,113,0,
0,0,0,0,0,0,0,114,113,113,114,114,113,113,113,113,113,117,117,118,117,117,119,117,119,117,117,117,118,113,113,114,113,113,113,113,113,114,113,0,
0,0,0,0,0,0,0,113,113,114,115,116,113,113,113,114,113,118,118,120,118,118,117,120,117,117,119,118,117,114,113,113,113,114,115,113,113,114,116,0,
0,0,0,0,0,0,0,113,113,113,116,113,113,113,113,114,113,117,117,117,119,118,117,117,117,119,117,117,118,113,113,113,113,115,113,113,113,114,114,0,
0,0,0,0,0,0,0,114,113,113,113,115,113,114,113,115,115,117,118,118,117,117,118,117,118,117,117,117,117,113,114,113,116,113,113,114,114,113,114,0,
0,0,0,0,0,0,0,114,114,113,113,113,113,113,113,113,113,119,117,120,117,117,119,117,118,120,117,117,118,113,114,113,113,113,113,113,113,113,113,0,
0,0,0,0,0,0,0,113,113,113,113,114,113,113,113,113,114,117,117,117,117,117,117,117,117,119,117,117,117,115,113,114,115,115,113,114,113,113,114,0,
0,0,0,0,0,0,0,114,113,113,114,113,114,113,115,113,113,117,117,120,117,117,117,117,117,117,117,117,117,113,113,113,114,113,114,113,113,114,113,0,
0,0,0,0,0,0,0,115,113,114,113,113,113,116,113,113,113,118,118,117,117,117,117,117,117,117,119,118,117,113,114,113,114,114,113,115,113,113,114,0,
0,0,0,0,0,0,0,114,113,114,113,113,113,114,113,113,114,120,117,117,117,119,117,117,117,117,120,117,117,115,114,116,114,113,113,113,113,113,113,0,
0,0,0,0,0,0,0,113,113,113,113,113,114,113,113,113,113,117,120,120,119,120,117,117,118,117,117,117,118,113,116,113,113,115,114,114,113,113,113,0
</data>
 </layer>
 <layer id="2" name="walls" width="40" height="53">
  <data encoding="csv">
0,0,0,0,0,0,0,0,0,0,0,0,0,0,0,0,0,0,0,0,0,0,0,0,0,0,0,0,0,0,0,0,0,0,0,0,0,0,0,0,
0,0,0,0,0,0,0,0,0,0,0,0,0,0,0,0,0,0,0,0,0,0,0,0,0,0,0,0,0,0,0,0,0,0,0,0,0,0,0,0,
0,0,0,0,0,0,0,0,0,0,0,0,0,0,0,0,0,0,0,0,0,0,0,0,0,0,0,0,0,0,0,0,0,0,0,0,0,0,0,0,
0,0,0,0,0,0,0,0,0,0,0,0,0,0,0,0,0,0,0,0,0,0,0,0,0,0,0,0,0,0,0,0,0,0,0,0,0,0,0,0,
0,9,2,2,2,2,2,6,0,0,0,0,0,0,0,0,0,0,0,0,0,0,0,0,0,0,0,0,0,0,0,0,0,0,0,0,0,0,0,0,
0,5,0,0,0,0,0,3,0,0,0,0,0,0,0,0,0,0,0,0,0,0,0,0,0,0,0,0,0,0,0,0,0,0,0,0,0,0,0,0,
0,5,0,0,0,0,0,3,0,0,0,0,0,0,0,0,0,0,0,0,0,0,0,0,0,0,0,0,0,0,0,0,0,0,0,0,0,0,0,0,
0,5,0,0,0,0,0,3,0,0,0,0,0,0,0,0,0,0,0,0,0,0,0,0,0,0,0,0,0,0,0,0,0,0,0,0,0,0,0,0,
0,5,0,0,0,0,0,3,0,0,0,0,0,0,0,0,0,0,0,0,0,0,0,0,0,0,0,0,0,0,0,0,0,0,0,0,0,0,0,0,
0,5,0,0,0,0,0,3,0,0,0,0,0,0,0,0,0,0,0,0,0,0,0,0,0,0,0,0,0,0,0,0,0,0,0,0,0,0,0,0,
0,5,0,0,0,0,0,3,9,2,2,2,2,2,2,2,2,2,2,2,2,2,2,2,2,2,2,2,2,2,2,6,0,0,0,0,0,0,0,0,
0,5,0,0,0,0,0,35,39,0,0,0,0,0,0,0,0,0,0,0,0,0,0,0,0,0,0,0,0,0,0,3,0,0,0,0,0,0,0,0,
0,5,0,0,0,0,0,36,40,0,0,0,0,0,0,0,0,0,0,0,0,0,0,0,0,0,0,0,0,0,0,3,0,0,0,0,0,0,0,0,
0,5,0,0,0,0,0,3,5,0,0,0,0,0,0,0,0,0,0,0,0,0,0,0,0,0,0,0,0,0,0,3,0,0,0,0,0,0,0,0,
0,5,0,0,0,0,0,3,5,0,0,0,0,0,0,0,0,0,0,0,0,0,0,0,0,0,0,0,0,0,0,3,0,0,0,0,0,0,0,0,
0,5,0,0,0,0,0,3,5,0,0,0,0,0,0,0,0,0,0,0,0,0,0,0,0,0,0,0,0,0,0,3,0,0,0,0,0,0,0,0,
0,5,0,0,0,0,0,3,5,0,0,0,0,0,0,0,0,0,0,0,0,0,0,0,0,0,0,0,0,0,0,3,0,0,0,0,0,0,0,0,
0,5,0,0,0,0,0,3,5,0,0,0,0,0,0,0,0,0,0,0,0,0,0,0,0,0,0,0,0,0,0,3,0,0,0,0,0,0,0,0,
0,8,4,4,4,4,4,7,5,0,0,0,0,0,0,0,0,0,0,0,0,0,0,0,0,0,0,0,0,0,0,3,0,0,0,0,0,0,0,0,
0,5,0,0,0,0,0,0,5,0,0,0,0,0,0,0,0,0,0,0,0,0,0,0,0,0,0,0,0,0,0,3,0,0,0,0,0,0,0,0,
0,5,0,0,0,0,0,0,5,0,0,0,0,0,0,0,0,0,0,0,0,0,0,0,0,0,0,0,0,0,0,3,0,0,0,0,0,0,0,0,
0,5,0,0,0,0,0,0,5,0,0,0,0,0,0,0,0,0,0,0,0,0,0,0,0,0,0,0,0,0,0,3,0,0,0,0,0,0,0,0,
0,5,0,0,0,0,0,0,5,0,0,0,0,0,0,0,0,0,0,0,0,0,0,0,0,0,0,0,0,0,0,3,0,0,0,0,0,0,0,0,
0,5,0,0,0,0,0,0,5,0,0,0,0,0,0,0,0,0,0,0,0,0,0,0,0,0,0,0,0,0,0,3,0,0,0,0,0,0,0,0,
0,5,0,0,0,0,0,0,5,0,0,0,0,0,0,0,0,0,0,0,0,0,0,0,0,0,0,0,0,0,0,3,0,0,0,0,0,0,0,0,
0,5,0,0,0,0,0,0,5,0,0,0,0,0,0,0,0,0,0,0,0,0,0,0,0,0,0,0,0,0,0,3,0,0,0,0,0,0,0,0,
0,5,0,0,0,0,0,0,5,0,0,0,0,0,0,0,0,0,0,0,0,0,0,0,0,0,0,0,0,0,0,3,0,0,0,0,0,0,0,0,
0,5,0,0,0,0,0,0,5,0,0,0,0,0,0,0,0,0,0,0,0,0,0,0,0,0,0,0,0,0,0,3,0,0,0,0,0,0,0,0,
0,5,0,0,0,0,0,0,5,0,0,0,0,0,0,0,0,0,0,0,0,0,0,0,0,0,0,0,0,0,0,3,0,0,0,0,0,0,0,0,
0,5,0,0,0,0,0,0,5,0,0,0,0,0,0,0,0,0,0,0,0,0,0,0,0,0,0,0,0,0,0,3,0,0,0,0,0,0,0,0,
0,9,2,2,2,2,6,0,0,0,0,0,0,0,0,0,0,0,0,0,0,0,0,0,0,0,0,0,0,0,0,0,0,0,0,0,0,0,0,0,
0,5,0,0,0,0,3,9,2,2,2,2,2,2,2,2,2,2,2,33,34,2,2,2,2,2,2,2,2,2,2,2,2,2,2,2,2,2,6,0,
0,5,0,0,0,0,35,39,0,0,0,0,0,0,0,0,0,0,0,0,0,0,0,0,0,0,0,0,0,0,0,0,0,0,0,0,0,0,3,0,
0,5,0,0,0,0,36,40,0,0,0,0,0,0,0,0,0,0,0,0,0,0,0,0,0,0,0,0,0,0,0,0,0,0,0,0,0,0,3,0,
0,5,0,0,0,0,3,8,4,4,4,4,37,38,4,4,4,4,4,4,4,4,4,37,38,4,4,4,4,4,4,4,4,4,37,38,4,4,7,0,
0,8,4,4,4,4,7,0,0,0,0,0,0,0,0,0,0,0,0,0,0,0,0,0,0,0,0,0,0,0,0,0,0,0,0,0,0,0,3,0,
0,0,0,0,0,0,0,5,0,0,0,0,0,0,0,0,0,0,0,0,0,0,0,0,0,0,0,0,0,0,0,0,0,0,0,0,0,0,3,0,
0,0,0,0,0,0,0,5,0,0,0,0,0,0,0,0,0,0,0,0,0,0,0,0,0,0,0,0,0,0,0,0,0,0,0,0,0,0,3,0,
0,0,0,0,0,0,0,5,0,0,0,0,0,0,0,0,0,0,0,0,0,0,0,0,0,0,0,0,0,0,0,0,0,0,0,0,0,0,3,0,
0,0,0,0,0,0,0,9,2,2,2,2,33,34,2,2,6,0,9,2,2,2,2,33,34,2,2,6,0,9,2,2,2,2,33,34,2,2,6,0,
0,0,0,0,0,0,0,5,0,0,0,0,0,0,0,0,3,0,5,0,0,0,0,0,0,0,0,3,0,5,0,0,0,0,0,0,0,0,3,0,
0,0,0,0,0,0,0,5,0,0,0,0,0,0,0,0,3,0,5,0,0,0,0,0,0,0,0,3,0,5,0,0,0,0,0,0,0,0,3,0,
0,0,0,0,0,0,0,5,0,0,0,0,0,0,0,0,3,0,5,0,0,0,0,0,0,0,0,3,0,5,0,0,0,0,0,0,0,0,3,0,
0,0,0,0,0,0,0,5,0,0,0,0,0,0,0,0,3,0,5,0,0,0,0,0,0,0,0,3,0,5,0,0,0,0,0,0,0,0,3,0,
0,0,0,0,0,0,0,5,0,0,0,0,0,0,0,0,3,0,5,0,0,0,0,0,0,0,0,3,0,5,0,0,0,0,0,0,0,0,3,0,
0,0,0,0,0,0,0,5,0,0,0,0,0,0,0,0,3,0,5,0,0,0,0,0,0,0,0,3,0,5,0,0,0,0,0,0,0,0,3,0,
0,0,0,0,0,0,0,5,0,0,0,0,0,0,0,0,3,0,5,0,0,0,0,0,0,0,0,3,0,5,0,0,0,0,0,0,0,0,3,0,
0,0,0,0,0,0,0,5,0,0,0,0,0,0,0,0,3,0,5,0,0,0,0,0,0,0,0,3,0,5,0,0,0,0,0,0,0,0,3,0,
0,0,0,0,0,0,0,5,0,0,0,0,0,0,0,0,3,0,5,0,0,0,0,0,0,0,0,3,0,5,0,0,0,0,0,0,0,0,3,0,
0,0,0,0,0,0,0,5,0,0,0,0,0,0,0,0,3,0,5,0,0,0,0,0,0,0,0,3,0,5,0,0,0,0,0,0,0,0,3,0,
0,0,0,0,0,0,0,5,0,0,0,0,0,0,0,0,3,0,5,0,0,0,0,0,0,0,0,3,0,5,0,0,0,0,0,0,0,0,3,0,
0,0,0,0,0,0,0,5,0,0,0,0,0,0,0,0,3,0,5,0,0,0,0,0,0,0,0,3,0,5,0,0,0,0,0,0,0,0,3,0,
0,0,0,0,0,0,0,8,4,4,4,4,4,4,4,4,7,4,8,4,4,4,4,4,4,4,4,7,4,8,4,4,4,4,4,4,4,4,7,0
</data>
 </layer>
 <layer id="3" name="props" width="40" height="53">
  <data encoding="csv">
0,0,0,0,0,0,0,0,0,0,0,0,0,0,0,0,0,0,0,0,0,0,0,0,0,0,0,0,0,0,0,0,0,0,0,0,0,0,0,0,
0,0,0,0,0,0,0,0,0,0,0,0,0,0,0,0,0,0,0,0,0,0,0,0,0,0,0,0,0,0,0,0,0,0,0,0,0,0,0,0,
0,0,0,0,0,0,0,0,0,0,0,0,0,0,0,0,0,0,0,0,0,0,0,0,0,0,0,0,0,0,0,0,0,0,0,0,0,0,0,0,
0,0,0,0,0,0,0,0,0,0,0,0,0,0,0,0,0,0,0,0,0,0,0,0,0,0,0,0,0,0,0,0,0,0,0,0,0,0,0,0,
0,0,0,0,0,0,0,0,0,0,0,0,0,0,0,0,0,0,0,0,0,0,0,0,0,0,0,0,0,0,0,0,0,0,0,0,0,0,0,0,
0,0,0,0,0,0,0,0,0,0,0,0,0,0,0,0,0,0,0,0,0,0,0,0,0,0,0,0,0,0,0,0,0,0,0,0,0,0,0,0,
0,0,0,0,0,0,0,0,0,0,0,0,0,0,0,0,0,0,0,0,0,0,0,0,0,0,0,0,0,0,0,0,0,0,0,0,0,0,0,0,
0,0,0,0,0,0,0,0,0,0,0,0,0,0,0,0,0,0,0,0,0,0,0,0,0,0,0,0,0,0,0,0,0,0,0,0,0,0,0,0,
0,0,0,0,0,0,0,0,0,0,0,0,0,0,0,0,0,0,0,0,0,0,0,0,0,0,0,0,0,0,0,0,0,0,0,0,0,0,0,0,
0,0,0,0,0,0,0,0,0,0,0,0,0,0,0,0,0,0,0,0,0,0,0,0,0,0,0,0,0,0,0,0,0,0,0,0,0,0,0,0,
0,0,0,0,0,0,0,0,0,0,0,0,0,0,0,0,0,0,0,0,0,0,0,0,0,0,0,0,0,0,0,0,0,0,0,0,0,0,0,0,
0,0,0,0,0,0,0,0,0,0,0,0,0,0,0,0,0,0,0,0,0,0,0,0,0,0,0,0,0,0,0,0,0,0,0,0,0,0,0,0,
0,0,0,0,0,0,0,0,0,0,0,0,0,0,0,0,0,0,0,0,0,0,0,0,0,0,0,0,0,0,0,0,0,0,0,0,0,0,0,0,
0,0,0,0,0,0,0,0,0,0,0,0,0,0,0,0,0,0,0,0,0,0,0,0,0,0,0,0,0,0,0,0,0,0,0,0,0,0,0,0,
0,0,0,0,0,0,0,0,0,0,0,0,0,0,0,0,0,0,0,0,0,0,0,0,0,0,0,0,0,0,0,0,0,0,0,0,0,0,0,0,
0,0,0,0,0,0,0,0,0,0,0,0,0,0,0,0,0,0,0,0,0,0,0,0,0,0,0,0,0,0,0,0,0,0,0,0,0,0,0,0,
0,0,0,0,0,0,0,0,0,0,0,0,0,0,0,0,0,0,0,0,0,0,0,0,0,0,0,0,0,0,0,0,0,0,0,0,0,0,0,0,
0,0,0,0,0,0,0,0,0,0,0,0,0,0,0,0,0,0,0,0,0,0,0,0,0,0,0,0,0,0,0,0,0,0,0,0,0,0,0,0,
0,0,0,0,0,0,0,0,0,0,0,0,0,0,0,0,0,0,0,0,0,0,0,0,0,0,0,0,0,0,0,0,0,0,0,0,0,0,0,0,
0,0,0,0,0,0,0,0,0,0,0,0,0,0,0,0,0,0,0,0,0,0,0,0,0,0,0,0,0,0,0,0,0,0,0,0,0,0,0,0,
0,0,0,0,0,0,0,0,0,0,0,0,0,0,0,0,0,0,0,0,0,0,0,0,0,0,0,0,0,0,0,0,0,0,0,0,0,0,0,0,
0,0,0,0,0,0,0,0,0,0,0,0,0,0,0,0,0,0,0,0,0,0,0,0,0,0,0,0,0,0,0,0,0,0,0,0,0,0,0,0,
0,0,0,0,0,0,0,0,0,0,0,0,0,0,0,0,0,0,0,0,0,0,0,0,0,0,0,0,0,0,0,0,0,0,0,0,0,0,0,0,
0,0,0,0,0,0,0,0,0,0,0,0,0,0,0,0,0,0,0,0,0,0,0,0,0,0,0,0,0,0,0,0,0,0,0,0,0,0,0,0,
0,0,0,0,0,0,0,0,0,0,0,0,0,0,0,0,0,0,0,0,0,0,0,0,0,0,0,0,0,0,0,0,0,0,0,0,0,0,0,0,
0,0,0,0,0,0,0,0,0,0,0,0,0,0,0,0,0,0,0,0,0,0,0,0,0,0,0,0,0,0,0,0,0,0,0,0,0,0,0,0,
0,0,0,0,0,0,0,0,0,0,0,0,0,0,0,0,0,0,0,0,0,0,0,0,0,0,0,0,0,0,0,0,0,0,0,0,0,0,0,0,
0,0,0,0,0,0,0,0,0,0,0,0,0,0,0,0,0,0,0,0,0,0,0,0,0,0,0,0,0,0,0,0,0,0,0,0,0,0,0,0,
0,0,0,0,0,0,0,0,0,0,0,0,0,0,0,0,0,0,0,0,0,0,0,0,0,0,0,0,0,0,0,0,0,0,0,0,0,0,0,0,
0,0,0,0,0,0,0,0,0,0,0,0,0,0,0,0,0,0,0,0,0,0,0,0,0,0,0,0,0,0,0,0,0,0,0,0,0,0,0,0,
0,0,0,0,0,0,0,0,0,0,0,0,0,0,0,0,0,0,0,0,0,0,0,0,0,0,0,0,0,0,0,0,0,0,0,0,0,0,0,0,
0,0,0,0,0,0,0,0,0,0,0,0,0,0,0,0,0,0,0,0,0,0,0,0,0,0,0,0,0,0,0,0,0,0,0,0,0,0,0,0,
0,0,0,0,0,0,0,0,0,0,0,0,0,0,0,0,0,0,0,0,0,0,0,0,0,0,0,0,0,0,0,0,0,0,0,0,0,0,0,0,
0,0,0,0,0,0,0,0,0,0,0,0,0,0,0,0,0,0,0,0,0,0,0,0,0,0,0,0,0,0,0,0,0,0,0,0,0,0,0,0,
0,0,0,0,0,0,0,0,0,0,0,0,0,0,0,0,0,0,0,0,0,0,0,0,0,0,0,0,0,0,0,0,0,0,0,0,0,0,0,0,
0,0,0,0,0,0,0,0,0,0,0,0,0,0,0,0,0,0,0,0,0,0,0,0,0,0,0,0,0,0,0,0,0,0,0,0,0,0,0,0,
0,0,0,0,0,0,0,0,0,0,0,0,0,0,0,0,0,0,0,0,0,0,0,0,0,0,0,0,0,0,0,0,0,0,0,0,0,0,0,0,
0,0,0,0,0,0,0,0,0,0,0,0,0,0,0,0,0,0,0,0,0,0,0,0,0,0,0,0,0,0,0,0,0,0,0,0,0,0,0,0,
0,0,0,0,0,0,0,0,0,0,0,0,0,0,0,0,0,0,0,0,0,0,0,0,0,0,0,0,0,0,0,0,0,0,0,0,0,0,0,0,
0,0,0,0,0,0,0,0,0,0,0,0,0,0,0,0,0,0,0,0,0,0,0,0,0,0,0,0,0,0,0,0,0,0,0,0,0,0,0,0,
0,0,0,0,0,0,0,0,0,0,0,0,0,0,0,0,0,0,0,0,0,0,0,0,0,0,0,0,0,0,0,0,0,0,0,0,0,0,0,0,
0,0,0,0,0,0,0,0,0,0,0,0,0,0,0,0,0,0,0,0,0,0,0,0,0,0,0,0,0,0,0,0,0,0,0,0,0,0,0,0,
0,0,0,0,0,0,0,0,0,0,0,0,0,0,0,0,0,0,0,0,0,0,0,0,0,0,0,0,0,0,0,0,0,0,0,0,0,0,0,0,
0,0,0,0,0,0,0,0,0,0,0,0,0,0,0,0,0,0,0,0,0,0,0,0,0,0,0,0,0,0,0,0,0,0,0,0,0,0,0,0,
0,0,0,0,0,0,0,0,0,0,0,0,0,0,0,0,0,0,0,0,0,0,0,0,0,0,0,0,0,0,0,0,0,0,0,0,0,0,0,0,
0,0,0,0,0,0,0,0,0,0,0,0,0,0,0,0,0,0,0,0,0,0,0,0,0,0,0,0,0,0,0,0,0,0,0,0,0,0,0,0,
0,0,0,0,0,0,0,0,0,0,0,0,0,0,0,0,0,0,0,0,0,0,0,0,0,0,0,0,0,0,0,0,0,0,0,0,0,0,0,0,
0,0,0,0,0,0,0,0,0,0,0,0,0,0,0,0,0,0,0,0,0,0,0,0,0,0,0,0,0,0,0,0,0,0,0,0,0,0,0,0,
0,0,0,0,0,0,0,0,0,0,0,0,0,0,0,0,0,0,0,0,0,0,0,0,0,0,0,0,0,0,0,0,0,0,0,0,0,0,0,0,
0,0,0,0,0,0,0,0,0,0,0,0,0,0,0,0,0,0,0,0,0,0,0,0,0,0,0,0,0,0,0,0,0,0,0,0,0,0,0,0,
0,0,0,0,0,0,0,0,0,0,0,0,0,0,0,0,0,0,0,0,0,0,0,0,0,0,0,0,0,0,0,0,0,0,0,0,0,0,0,0,
0,0,0,0,0,0,0,0,0,0,0,0,0,0,0,0,0,0,0,0,0,0,0,0,0,0,0,0,0,0,0,0,0,0,0,0,0,0,0,0,
0,0,0,0,0,0,0,0,0,0,0,0,0,0,0,0,0,0,0,0,0,0,0,0,0,0,0,0,0,0,0,0,0,0,0,0,0,0,0,0
</data>
 </layer>
 <objectgroup id="4" name="rooms">
  <object id="1" name="kitchen" type="room" x="32" y="96" width="224" height="360" />
  <object id="2" name="tavern" type="room" x="256" y="240" width="768" height="504" />
  <object id="3" name="board" type="room" x="32" y="720" width="192" height="144" />
  <object id="4" name="corridor" type="room" x="224" y="744" width="1024" height="96" />
  <object id="5" name="dormitory" type="room" x="224" y="936" width="320" height="336" />
  <object id="6" name="smithy" type="room" x="576" y="936" width="320" height="336" />
  <object id="7" name="training" type="room" x="928" y="936" width="320" height="336" />
 </objectgroup>
</map>